src/assets/duotone/WifiSquare.svg

<svg width="24" height="24" viewBox="0 0 24 24"  xmlns="http://www.w3.org/2000/svg">
<path opacity="0.4" d="M16.19 2H7.82C4.17 2 2 4.17 2 7.81V16.18C2 19.82 4.17 21.99 7.81 21.99H16.18C19.82 21.99 21.99 19.82 21.99 16.18V7.81C22 4.17 19.83 2 16.19 2Z" />
<path d="M18 10.7102C17.84 10.7102 17.68 10.6602 17.54 10.5502C14.17 7.95016 9.82003 7.95016 6.46003 10.5502C6.13003 10.8002 5.66003 10.7402 5.41003 10.4202C5.16003 10.0902 5.22003 9.62016 5.54003 9.37016C9.46003 6.34016 14.53 6.34016 18.46 9.37016C18.79 9.62016 18.85 10.0902 18.59 10.4202C18.45 10.6102 18.22 10.7102 18 10.7102Z" />
<path d="M16.3999 13.8C16.2399 13.8 16.0799 13.75 15.9399 13.64C13.5399 11.79 10.4499 11.79 8.04988 13.64C7.71988 13.89 7.24987 13.83 6.99987 13.51C6.74987 13.19 6.80987 12.71 7.12987 12.46C10.0799 10.18 13.8999 10.18 16.8499 12.46C17.1799 12.71 17.2399 13.18 16.9799 13.51C16.8499 13.7 16.6299 13.8 16.3999 13.8Z" />
<path d="M14.2001 16.8904C14.0401 16.8904 13.8801 16.8404 13.7401 16.7304C12.6801 15.9104 11.3101 15.9104 10.2501 16.7304C9.92007 16.9804 9.45007 16.9204 9.20007 16.6004C8.95007 16.2704 9.01007 15.8004 9.33007 15.5504C10.9201 14.3204 13.0601 14.3204 14.6501 15.5504C14.9801 15.8004 15.0401 16.2704 14.7801 16.6004C14.6501 16.7904 14.4301 16.8904 14.2001 16.8904Z" />
</svg>

<?xml version="1.0" encoding="UTF-8"?>
<svg width="24" height="24" viewBox="0 0 24 24" xmlns="http://www.w3.org/2000/svg">
 <path d="m16.19 2h-8.37c-3.65 0-5.82 2.17-5.82 5.81v8.37c0 3.64 2.17 5.81 5.81 5.81h8.37c3.64 0 5.81-2.17 5.81-5.81v-8.37c0.01-3.64-2.16-5.81-5.8-5.81z" opacity=".4"/>
 <path d="m18 10.71c-0.16 0-0.32-0.05-0.46-0.16-3.37-2.6-7.72-2.6-11.08 0-0.33 0.25-0.8 0.19-1.05-0.13-0.25-0.33-0.19-0.80004 0.13-1.05 3.92-3.03 8.99-3.03 12.92 0 0.33 0.25 0.39 0.72004 0.13 1.05-0.14 0.19-0.37 0.29-0.59 0.29z"/>
 <path d="m16.4 13.8c-0.16 0-0.32-0.05-0.46-0.16-2.4-1.85-5.49-1.85-7.89 0-0.33 0.25-0.80001 0.19-1.05-0.13s-0.19-0.8 0.13-1.05c2.95-2.28 6.77-2.28 9.72 0 0.33 0.25 0.39 0.72 0.13 1.05-0.13 0.19-0.35 0.29-0.58 0.29z"/>
 <path d="m14.2 16.89c-0.16 0-0.32-0.05-0.46-0.16-1.06-0.82-2.43-0.82-3.49 0-0.33003 0.25-0.80003 0.19-1.05-0.13-0.25-0.33-0.19-0.8 0.13-1.05 1.59-1.23 3.73-1.23 5.32 0 0.33 0.25 0.39 0.72 0.13 1.05-0.13 0.19-0.35 0.29-0.58 0.29z"/>
</svg>
